src/assets/img/icons/Icon-Succes-Blue.svg

<svg width="27" height="27" viewBox="0 0 27 27" fill="none" xmlns="http://www.w3.org/2000/svg">
<path d="M7.77264 12.641C7.42202 12.2143 6.79187 12.1526 6.36515 12.5032C5.93844 12.8538 5.87675 13.484 6.22736 13.9107L7.77264 12.641ZM12.525 20L11.7524 20.6348C11.9536 20.8798 12.259 21.0148 12.5756 20.9987C12.8922 20.9827 13.1824 20.8175 13.3578 20.5535L12.525 20ZM21.3329 8.5535C21.6385 8.09353 21.5135 7.47284 21.0535 7.16715C20.5935 6.86146 19.9728 6.98653 19.6671 7.4465L21.3329 8.5535ZM6.22736 13.9107L11.7524 20.6348L13.2976 19.3652L7.77264 12.641L6.22736 13.9107ZM13.3578 20.5535L21.3329 8.5535L19.6671 7.4465L11.6921 19.4465L13.3578 20.5535ZM25 13.5C25 19.8513 19.8513 25 13.5 25V27C20.9558 27 27 20.9558 27 13.5H25ZM13.5 25C7.14873 25 2 19.8513 2 13.5H0C0 20.9558 6.04416 27 13.5 27V25ZM2 13.5C2 7.14873 7.14873 2 13.5 2V0C6.04416 0 0 6.04416 0 13.5H2ZM13.5 2C19.8513 2 25 7.14873 25 13.5H27C27 6.04416 20.9558 0 13.5 0V2Z" fill="#00499A"/>
</svg>

<svg width="27" height="27" fill="none" xmlns="http://www.w3.org/2000/svg">
  <path d="M7.7726 12.641c-.3506-.4267-.9807-.4884-1.4074-.1378-.4268.3506-.4884.9808-.1378 1.4075l1.5452-1.2697zM12.525 20l-.7726.6348a.9997.9997 0 001.6054-.0813L12.525 20zm8.8079-11.4465c.3056-.46.1806-1.0807-.2794-1.3863-.46-.3057-1.0807-.1807-1.3864.2793l1.6658 1.107zM6.2274 13.9107l5.525 6.7241 1.5452-1.2696-5.525-6.7242-1.5452 1.2697zm7.1304 6.6428l7.9751-12-1.6658-1.107-7.975 12 1.6657 1.107zM25 13.5C25 19.8513 19.8513 25 13.5 25v2C20.9558 27 27 20.9558 27 13.5h-2zM13.5 25C7.1487 25 2 19.8513 2 13.5H0C0 20.9558 6.0442 27 13.5 27v-2zM2 13.5C2 7.1487 7.1487 2 13.5 2V0C6.0442 0 0 6.0442 0 13.5h2zM13.5 2C19.8513 2 25 7.1487 25 13.5h2C27 6.0442 20.9558 0 13.5 0v2z" fill="#00499A"/>
</svg>
